!!!!SEGMENT: pl-sa--555-a-ix-35--003_anonim--polonez-andante.krn
!!!cenid: 18xx:583
!!!COM: Anonim
!!!COM-rismid: pe30004985
!!!CDT:
!!!CNT:
!!!OTL: Polonez andante
!!!PDT:
!!!AGN: Secular; Polonaise
!!!SMS-siglum: PL-SA
!!!SMS-shelfmark: 555/A IX 35
!!!SMS-shelfwork: 003 W
!!!SMS-variant:
!!!SMS-altvar:
!!!NIFC-rismid: 1001065394
!!!URL-scan: http://bc.bdsandomierz.pl/dlibra/publication/1311/edition/1279/content
!!!ONB-nifc: Str. 4-5
!!!key:
**kern	**kern
*part1	*part1
*staff2	*staff1
*Ipiano	*Iempty
*I"Pianoforte	*
*I'P-no	*
*clefF4	*clefG2
*k[b-]	*k[b-]
*d:	*d:
*M3/4	*M3/4
*A,B,B,C,D,D	*
*A	*A
=1	=1
.	16qqdd/LL
!	!LO:TX:rj:a:B:t=Polo&colon;
!	!LO:TX:a:B:t=Andante
.	16qqff/JJ
8D/L 8DD/	4.aa\
(32D/LL	.
32C#X/	.
32D/	.
32C#/JJJ)	.
4D/	.
.	(32gg#X\KLL
.	16.aa\JJ)
4r	(32ee\KLL
.	16.ff\JJ)
.	(32cc#X\KLL
.	16.dd\JJ)
=2	=2
4r	8dd/L 8f/
.	8cc#X/J 8e/
8r	2cc#/ 2e/
(32G#X\KLL	.
16.A\JJ)	.
(32D#X\KLL	.
16.E\JJ)	.
(32BBn\KLL	.
16.C#X\JJ)	.
=3	=3
.	16qqcc#X/LL
.	16qqee/JJ
32GG#X/KLL	4.ee\ 4.ccn\
16.AA/JJ	.
(32A\LLL	.
32G#X\)	.
32A\	.
32G#\JJJ	.
4A\	.
.	16aa\LL 16ff\
.	16bb-\JJ 16gg\
4r	16aa\LL 16ff\
.	16gg\ 16ee\
.	16ff\ 16dd\
.	16ee\JJ 16cc#X\
=4	=4
4D\	16gg\LL 16ee\
.	16ff\ 16dd\
.	16bb-\ 16gg\
.	16aa\JJ 16ff\
16.r	4aa\ 4ff\
32c#X\KLL	.
16.d\	.
32G#X\JJk	.
16A\LL	4r
16E\	.
16F\	.
16C#X\JJ	.
!!LO:LB:g=original
=5	=5
!LO:TX:a:t=P:problem:mixed  beam	!
16D/LL	8cc#X\L 8e\
16d\	.
16.A\	8.dd\J 8.f\
32F\JJk	.
4D/	.
.	16cc#\LL
.	16ee\
.	16cc#\JJ
!LO:TX:a:t=P:problem:mixed  beam	!
8DD/L	8.dd\L 8.f\
8D\J	.
.	16ee\Jk 16cc#\
=6	=6
32D\LLL	4ee-X\ 4cc\
32d\	.
32c#X\	.
32d\JJJ	.
32A\LLL	.
32d\	.
32F\	.
32A\JJJ	.
4D/	16ff\LL 16dd\
.	16ee-\ 16cc#X\
.	16gg\ 16ee-\
.	16ff\JJ 16dd\
!LO:TX:a:t=P:problem:mixed  beam	!
8DD/L	8.ff\L 8.dd\
8D\J	.
.	16gg\Jk 16ee-\
=7	=7
.	16qqdd/LL
.	16qqff/JJ
32D\LLL	4.aa\ 4.ff\
32d\	.
32c#X\	.
32d\JJJ	.
32f>\LLL	.
32d>\	.
32a>\	.
32f>\JJJ	.
4d>\	.
.	16bb-/LL 16ff\
.	16aa/JJ 16ff\
!LO:TX:a:t=P:problem:mixed  beam	!
8DD/L	16gg\LL
.	16ff\
8D\J	16ee\
.	16dd\JJ
=8	=8
4AA/	16cc#X\LL
.	16ee\
.	(32gg#X\K
.	16.aa\JJ)
8r	(32dd#X\KLL
.	16.ee\JJ)
8A\	(32bn\KLL
.	16.cc#\JJ)
4AA/	32g#X/KLL
.	16.a/J
!	!LO:SIC:o:s:=:v: kreska taktowa oznaczona - segno
.	8A/J
=9	=9
!LO:SIC:o:s:=:v:ozdobna kreska taktowa bo segno tak na prawdę za dwie ósemki	!LO:SIC:o:s:=:v:ozdobna kreska taktowa bo segno tak na prawdę za trzy ósemki
!LO:TX:a:t=[segno]	!LO:TX:a:t=[segno]
.	16qqa/LL
!LO:TX:a:t=P:problem:mixed  beam	!
.	16qqcc#X/JJ
16AA/LL	4.ee\ 4.cc#\
16A\	.
16G#X\	.
16A\JJ	.
*B	*B
*2\right	*
*tremolo	*
!LO:TX:a:t=[segno]	!LO:TX:a:t=[segno]
!LO:TX:a:t=P:problem:mixed  beam	!
8AA\L	.
8A/	(16ee\LL 16cc#\
.	16ff\JJ 16dd\)
8AA\	8ee\L 8cc#'\
8A/J	8ee\J 8cc#'\
*Xtremolo	*
!!LO:LB:g=original
=10	=10
4D/ 4DD/	8.aa\L 8.ff\
.	16bb-\Jk 16gg\
8r	8aa\L 8ff\
8c#X\L	8gg\ 8ee\
8d\	8ff\ 8dd\
8c#\J	8ee\J 8cc#X\
=11	=11
8r	8cc#X/ 8e/
32D/LLL	4dd/ 4f/
32C#X/	.
32D/	.
32C#/JJJ	.
4D/	.
.	16bb-\LL 16gg\
.	16aa\JJ 16ff\
8r	8.aa\L 8.ff\
8D/	.
.	16gg\Jk 16ee\
=12	=12
4AA/	8ff\L 8dd'\
.	8ff\J 8ddT\
8r	4ee\ 4cc#X\
*Xtuplet	*
24A\LL	.
24G#X\	.
24A\JJ	.
16E\LL	4r
16A\	.
16C#X\	.
16E\JJ	.
=13	=13
.	16qqa/LL
!LO:TX:a:t=P:problem:mixed  beam	!
.	16qqcc#X/JJ
16AA/LL	4.ee\ 4.cc#\
16A\	.
16G#X\	.
16A\JJ	.
*tremolo	*
!LO:TX:a:t=P:problem:mixed  beam	!
8AA\L	.
8A\	16ee\LL 16cc#\
.	16ff\JJ 16dd\
8AA\	8ee\L 8cc#\
8A\J	8ee\J 8cc#\
*Xtremolo	*
=14	=14
4D/ 4DD/	8.aa\L 8.ff\
.	16bb-\Jk 16gg\
8r	8aa\L 8ff\
8c#X\L	8gg\ 8ee\
8d\	8ff\ 8dd\
8c#\J	8ee\J 8cc#X\
=15	=15
8r	8..dd\L
(32D/LLL	.
32C#X/)	.
32D'/	.
32AA'/JJJ	32a\Jkk
8D\L	8.ff\L
32d\LL	.
32c#X\	.
32d\	32dd\Jkk
32A\JJJ	8..aa\L 8..ff\
!LO:TX:a:t=P:problem:mixed  beam	!
8d\L	.
(32D/LL	.
32E/	.
32F/	16ff\Jk 16dd\
32G#X/JJJ)	.
!!LO:LB:g=original
=16	=16
4A\	16gg\LL 16ee\
.	16ff\ 16dd\
.	16ee\ 16cc#X\
.	16ff\JJ 16dd\
8r	4ee\ 4ccn\
16A\LL	.
16B-\JJ	.
16A\LL	4r
16G\	.
16F\	.
16E\JJ	.
=17	=17
16D\LL	4dd\ 4f\
16F\	.
16A\	.
16F\JJ	.
*rep	*
16D\LL	16dd\LL
16F\	16ff\J
16A\	8ffT\J
16F\JJ	.
*Xrep	*
*rep	*
16D\LL	8.aa\L 8.ff\
16F\	.
16A\	.
16F\JJ	16ff\Jk 16dd\
*Xrep	*
=18	=18
16C#X\LL	4ee\ 4cc#X\
16G\	.
16B-X\	.
16G\JJ	.
*rep	*
16C#\LL	16ee\LL
16G\	16gg\J
16B-X\	8ggT\J
16G\JJ	.
*Xrep	*
*rep	*
16C#\LL	8.bb-\L 8.gg\
16G\	.
16B-X\	.
16G\JJ	16gg\Jk 16ee\
*Xrep	*
=19	=19
!LO:TX:a:t=P:problem:mixed  beam	!
16AA/LL	8ee\ 8cc#X\
16A\	.
16G#X\	4ccc#X\ 4ee\
16A\JJ	.
16E\LL	.
16A\	.
16C#X\	8ccc#\ 8ee\
16E\JJ	.
8D\L	16ddd\LL 16ff\
.	16aa\ 16ff\
8F\J	16gg\ 16ee\
.	16ff\JJ 16dd\
=20	=20
8G\L	16ee\LL
.	16bb-\
8A\J	16aa\
.	16cc#X\JJ
8r	4cc#/ 4e/
8AA/	.
4D/	8dd/ 8f/
.	8r
=21:|!|:;	=21:|!|:;
.	16qqa/LL
!LO:TX:a:t=P:problem:mixed  beam	!
.	16qqccn/JJ
16.FF/LL	4.ff\ 4.cc\ 4.a\
32F\K	.
16.C\	.
32AA\JJk	.
*tremolo	*
!LO:TX:a:t=P:problem:mixed  beam	!
8FF/L	.
8F/	16ee/LL 16cc\
.	16dd/JJ 16b-\
!LO:TX:a:t=P:problem:mixed  beam	!
8FF/	8cc/L 8a\
8F/J	8cc/J 8a\
*Xtremolo	*
!!LO:PB:g=original
=22	=22
4FF/	8.cc/L 8.a\
.	16dd/Jk 16b-\
8r	8cc/L 8a/
!LO:TX:a:t=P:problem:mixed  beam	!
8C/L	8b-/ 8g/
8F\	8b-/ 8g/
8FF/J	8a/J 8f/
=23	=23
.	16qqf/LL
!LO:TX:a:t=P:problem:mixed  beam	!
.	16qqb-/JJ
16.BB-/LL	4.dd\ 4.b-\
32B-\K	.
16.F\	.
32D\JJk	.
*tremolo	*Xtuplet
!LO:TX:a:t=P:problem:mixed  beam	!
8BB-/L	.
8B-/	24een\LL 24cc\
.	24ff\ 24dd\
.	24ee\JJ 24cc\
8BB-/	16gg\LL 16ee\
.	16ff\ 16dd\
8B-/J	16ee\ 16cc\
.	16dd\JJ 16b-\
*Xtremolo	*
=24	=24
8r	8cc\L 8a\
!LO:TX:a:t=P:problem:mixed  beam	!
8F\L	16aa\L
.	16ff\JJ
8E\	8cc\L
8C\	16a\L 16f\
.	16cc\JJ 16a\
8F\	16cc\LL 16a/
.	16b-\J 16g/
8FF/J	8a\J 8f/
=25	=25
.	16qqcc/LL
.	16qqee/JJ
8r	4gg\ 4ee\
!LO:TX:a:t=P:problem:mixed  beam	!
8C/L	.
8c\	16gg\LL 16ee'\
.	16gg\ 16ee'\
8c\	(16bb-\ 16gg\
.	16aa\JJ 16ff\)
8c\	16gg\LL 16ee'\
.	16gg\ 16ee'\
8c\J	(16ccc\ 16aa\
.	16bb-\JJ 16gg\)
=26	=26
4F\	16bb-\LL 16gg\
.	16aa\ 16ff\
.	16ddd\ 16bb-'\
.	16ccc\JJ 16aa\
8r	4.ccc\ 4.aa\
32F\LLL	.
32E\	.
32F\	.
32E\JJJ	.
!LO:TX:a:t=P:problem:mixed  beam	!
8F\L	.
8FF/J	16bb-\LL 16gg\
.	16aa\JJ 16ff\
=27	=27
8r	16aa\LL 16ff\
.	16gg\JJ 16ee\
!LO:TX:a:t=P:problem:mixed  beam	!
8C/L	4gg\ 4ee\
8c\	.
8c\	16bb-\LL 16gg\
.	16aa\JJ 16ff\
8c\	16gg\LL 16ee\
.	16bb-\ 16gg\
8c\J	16ddd\ 16bb-\
.	16ccc\JJ 16aa\
!!LO:LB:g=original
=28	=28
4F\	32ccc\KLL
.	16.aa\
.	32bb-\K
.	16.gg\JJ
8r	8.gg\L
8C#X/	.
.	16aa\Jk
.	8qqgg/
4D\	8ff\L
.	16ee\L
.	16dd\JJ
=29	=29
.	16qqcc#X/LL
!LO:TX:a:t=P:problem:mixed  beam	!
.	16qqee/JJ
!LO:TX:a:i:t=al segno	!
16AA/LL	4.aa\ 4.ee\ 4.cc#y\
16A\	.
16G#X\	.
16A\JJ	.
!LO:SIC:o:s:=:v:znaczek koniec segno	!LO:SIC:o:s:=:v:znaczek koniec segno
2ryy	.
.	8ryy
.	4ryy
*C	*C
=30||;	=30||;
*k[b-]	*k[b-]
*M3/4	*M3/4
!LO:TX:a:t=Trio	!
4D/ 4DD/	(16a\LL
.	16dd\J)
!	!LO:TX:a:t=P:problem:♮ above
.	8dd\J
.	16qqa/LL
.	16qqdd/JJ
8r	4.ff\ 4.cc\
8D\L	.
8F\	.
8D\J	16ee\LL
.	16dd\JJ
=31	=31
8A\L	16cc#X\LL
.	16ee\
!LO:TX:a:t=P:problem:mixed beam	!
8AA/J	16ee\
.	16dd\JJ
8D/L	4dd\
32D/LL	.
32C#X/	.
32D/	.
32C#/JJJ	.
16D\LL	4r
16F\	.
16A\	.
16F\JJ	.
=32	=32
4D\	16dd\LL
.	16ff\J
.	8ff\J
!	!LO:TX:a:t=t
8r	4.aa\ 4.ff\
8D\L	.
8F\	.
8D\J	16gg\LL 16ee\
.	16ff\JJ 16dd\
!!LO:LB:g=original
=33	=33
4A\	16ee\LL 16cc#X\
.	16gg\ 16ee\
.	16gg\ 16ee\
.	16ff\JJ 16dd\
8r	4.ff\ 4.dd\
32d\LLL	.
32c#X\	.
32d\	.
32c#\JJJ	.
8d\	.
8r	24ff\LL 24dd\
.	24gg\ 24ee\
.	24aa\JJ 24ff\
=34	=34
.	16qqcc#X/LL
.	16qqee/
.	16qqgg/JJ
8r	4.bb-\ 4.gg\
32B-\LLL	.
32A\	.
32B-\	.
32G\JJJ	.
8E\L	.
32G\LL	16gg\LL
32F#X\	.
32G\	16ee\JJ
32E\JJJ	.
8C#X\L	16cc#\LL
.	16ee\
8E\J	16gg\
.	16bb-\JJ
=35	=35
.	16qqdd\L
.	16qqee\J
8r	4.aa\ 4.ff\
32d\LLL	.
32c#X\	.
32d\	.
32A\JJJ	.
8Fn\L	.
32A\LL	16ff\LL
32G#X\	.
32A\	16dd\JJ
32F\JJJ	.
4D\	16cc#X\LL
.	16dd\
.	16ee\
.	16dd\JJ
=36	=36
8r	8.gg\L
32A\LLL	.
32G#X\	.
32A\	16ee\Jk
32E\JJJ	.
4C#X/	16cc#X\LL
.	16ee\
.	16gg\
.	16bb-\JJ
8r	8.aa\L 8.ff\
32AA/LLL	.
32BB-/	.
32C#X/	16gg\Jk 16ee\
32AA/JJJ	.
=37	=37
8D\L	8ff\L
!	!LO:TX:a:t=t
32F\LL	8ff\J
32E\	.
32F\	.
32D\JJJ	.
!LO:TX:a:t=P:problem:mixed  beam	!
8A\L	8.aa\L
32C#X/LL	.
32BB-/	.
32C#/	16cc#X\Jk
32AA\JJJ	.
4D\	4dd\ 4f\
*D	*D
=38:|!|:	=38:|!|:
.	16qqcc#X/LL
.	16qqee/JJ
8E\L 8C#X\	4aa\
8A\	.
8E\ 8C#\	8.ee\L
8A\	.
.	16aa\Jk
8F\ 8D\	16gg\LL
.	16ff\
8A\J	16ee\
.	16dd\JJ
!!LO:LB:g=original
=39	=39
16AA\LL	4.cc#X\
16C#X\	.
16E\	.
16A\JJ	.
16G#X\LL	.
16A\	.
16B-\	8ee\
16A\JJ	.
16Gn\LL	8dd\L
16F\	.
16E\	8ff\J
16D\JJ	.
=40	=40
.	16qqcc#\L
.	16qqee\J
8E\L 8C#X\	4aa\
8A\	.
8E\ 8C#\	8.ee\L
8A\	.
.	16aa\Jk
8F\ 8D\	16gg\LL
.	16ff\
8A\J	16ee\
.	16dd\JJ
=41	=41
4C#X/	8bb-\L 8gg\
.	8bb-\J 8gg\
8r	4aa\ 4ff\
32A\LLL	.
32G#X\	.
32A\	.
32G#\JJJ	.
16A\LL	4r
16Gn\	.
16F\	.
16E\JJ	.
!	!LO:TX:a:t=Trio Da Capo
==	==
*-	*-
!!!system-decoration: s1,s2
!!!RDF**kern: > = above
!!!RDF**kern: < = below
!!!EED: Leszek Kubiak
!!!EST: 2020-12-10
!!!AIN: 1 piano
!!!ENC: Tomasz Grochalski
!!!END: 2020-06-18
